X: 346
T: A Shepherd's Dream
R: reel
M: 4/4
K: Gmajor
GDGB ADAc|BGBe d3e|=fedc BdGB|ADFA GcBA||
G3B A3c|BGBe d3e|=fedc BdGB|AD{G}F_A G2 GD||
GDGB ADAc|BGBe d3e|=fedc BdGB|ADFA GcBA||
GFGB A^GAc|B=B^Be d3e|=fedc BdGB|ADFA G2 A/B/c||
dedc BDGB|ADFA GABc|d3c BDGB|ADFA G2 A/B/c||
dedc BdGB|ADFA GABc|d^cd=c BdGB|ADFA G2 GF||
GABc d^cde|=fed^c dcde|=fedc BdGB|ADFA GcBA||
GABc d^cde|=fed^c dcde|=fedc BdGB|ADFA G4||

